{"compressionlevel":-1,"height":12,"infinite":false,"layers":[{"id":1,"image":"../environments/expo-fare-concourse.png","name":"BackgroundArt","type":"imagelayer","visible":true,"x":0,"y":0},{"id":2,"name":"Reference","objects":[],"type":"objectgroup"},{"id":3,"name":"Environment","objects":[{"id":1,"name":"Expo fare concourse","type":"concourse","x":0,"y":280,"width":2176,"height":444}],"type":"objectgroup"},{"id":4,"name":"Collision","objects":[],"type":"objectgroup"},{"id":5,"name":"Interactions","objects":[],"type":"objectgroup"},{"id":6,"name":"Spawns","objects":[{"id":2,"name":"player-start","type":"spawn","x":1088,"y":660,"width":0,"height":0}],"type":"objectgroup"},{"id":7,"name":"Paths","objects":[{"id":3,"name":"Fare gate exit route","type":"path","x":560,"y":300,"width":1056,"height":390}],"type":"objectgroup"},{"id":8,"name":"Camera","objects":[{"id":4,"name":"Station framing","type":"camera","x":0,"y":0,"width":2176,"height":724}],"type":"objectgroup"}],"nextlayerid":9,"nextobjectid":5,"orientation":"orthogonal","renderorder":"right-down","tiledversion":"1.11.2","tileheight":64,"tilesets":[],"tilewidth":64,"type":"map","version":"1.10","width":34}
