{"compressionlevel":-1,"height":12,"infinite":false,"layers":[{"id":1,"image":"../environments/kadaloor-lrt-stairs.png","name":"BackgroundArt","type":"imagelayer","visible":true,"x":0,"y":0},{"id":2,"name":"Reference","objects":[],"type":"objectgroup"},{"id":3,"name":"Environment","objects":[{"id":1,"name":"Platform stairs","type":"stairs","x":100,"y":130,"width":1950,"height":540}],"type":"objectgroup"},{"id":4,"name":"Collision","objects":[],"type":"objectgroup"},{"id":5,"name":"Interactions","objects":[{"id":2,"name":"Next area","type":"portal","x":1680,"y":300,"width":296,"height":424}],"type":"objectgroup"},{"id":6,"name":"Spawns","objects":[{"id":3,"name":"player-start","type":"spawn","x":420,"y":660,"width":0,"height":0}],"type":"objectgroup"},{"id":7,"name":"Paths","objects":[{"id":4,"name":"Stair route","type":"path","x":360,"y":300,"width":1620,"height":390}],"type":"objectgroup"},{"id":8,"name":"Camera","objects":[{"id":5,"name":"Station framing","type":"camera","x":0,"y":0,"width":2176,"height":724}],"type":"objectgroup"}],"nextlayerid":9,"nextobjectid":6,"orientation":"orthogonal","renderorder":"right-down","tiledversion":"1.11.2","tileheight":64,"tilesets":[],"tilewidth":64,"type":"map","version":"1.10","width":34}