{"compressionlevel":-1,"height":12,"infinite":false,"layers":[{"id":1,"image":"../environments/the-signature-exterior.png","name":"BackgroundArt","type":"imagelayer","visible":true,"x":0,"y":0},{"id":2,"name":"Reference","objects":[],"type":"objectgroup"},{"id":3,"name":"Environment","objects":[{"id":1,"name":"The Signature exterior","type":"business-park","x":0,"y":0,"width":2176,"height":724}],"type":"objectgroup"},{"id":4,"name":"Collision","objects":[],"type":"objectgroup"},{"id":5,"name":"Interactions","objects":[{"id":2,"name":"Next area","type":"portal","x":1880,"y":490,"width":296,"height":234}],"type":"objectgroup"},{"id":6,"name":"Spawns","objects":[{"id":3,"name":"player-start","type":"spawn","x":520,"y":660,"width":0,"height":0}],"type":"objectgroup"},{"id":7,"name":"Paths","objects":[{"id":4,"name":"Walk to The Signature","type":"path","x":440,"y":520,"width":1680,"height":170}],"type":"objectgroup"},{"id":8,"name":"Camera","objects":[{"id":5,"name":"Office exterior framing","type":"camera","x":0,"y":0,"width":2176,"height":724}],"type":"objectgroup"}],"nextlayerid":9,"nextobjectid":6,"orientation":"orthogonal","renderorder":"right-down","tiledversion":"1.11.2","tileheight":64,"tilesets":[],"tilewidth":64,"type":"map","version":"1.10","width":34}