{"compressionlevel":-1,"height":12,"infinite":false,"layers":[{"id":1,"image":"../environments/kadaloor-lrt-concourse.png","name":"BackgroundArt","type":"imagelayer","visible":true,"x":0,"y":0},{"id":2,"name":"Reference","objects":[],"type":"objectgroup"},{"id":3,"name":"Environment","objects":[{"id":1,"name":"Fare gates","type":"gates","x":850,"y":350,"width":500,"height":260}],"type":"objectgroup"},{"id":4,"name":"Collision","objects":[],"type":"objectgroup"},{"id":5,"name":"Interactions","objects":[{"id":2,"name":"Fare gate","type":"tap-in","x":850,"y":430,"width":500,"height":270},{"id":3,"name":"Next area","type":"portal","x":1900,"y":420,"width":276,"height":304}],"type":"objectgroup"},{"id":6,"name":"Spawns","objects":[{"id":4,"name":"player-start","type":"spawn","x":160,"y":660,"width":0,"height":0}],"type":"objectgroup"},{"id":7,"name":"Paths","objects":[{"id":5,"name":"Concourse route","type":"path","x":100,"y":620,"width":2020,"height":70}],"type":"objectgroup"},{"id":8,"name":"Camera","objects":[{"id":6,"name":"Station framing","type":"camera","x":0,"y":0,"width":2176,"height":724}],"type":"objectgroup"}],"nextlayerid":9,"nextobjectid":7,"orientation":"orthogonal","renderorder":"right-down","tiledversion":"1.11.2","tileheight":64,"tilesets":[],"tilewidth":64,"type":"map","version":"1.10","width":34}
