{"compressionlevel":-1,"height":12,"infinite":false,"layers":[{"id":1,"image":"../environments/little-india-nel-platform.png","name":"BackgroundArt","type":"imagelayer","visible":true,"x":0,"y":0},{"id":2,"name":"Reference","objects":[],"type":"objectgroup"},{"id":3,"name":"Environment","objects":[{"id":1,"name":"NEL arrival platform","type":"platform","x":0,"y":280,"width":2176,"height":444}],"type":"objectgroup"},{"id":4,"name":"Collision","objects":[],"type":"objectgroup"},{"id":5,"name":"Interactions","objects":[{"id":2,"name":"Next area","type":"portal","x":1840,"y":380,"width":336,"height":344}],"type":"objectgroup"},{"id":6,"name":"Spawns","objects":[{"id":3,"name":"player-start","type":"spawn","x":320,"y":660,"width":0,"height":0}],"type":"objectgroup"},{"id":7,"name":"Paths","objects":[{"id":4,"name":"Transfer exit route","type":"path","x":140,"y":560,"width":1950,"height":130}],"type":"objectgroup"},{"id":8,"name":"Camera","objects":[{"id":5,"name":"Station framing","type":"camera","x":0,"y":0,"width":2176,"height":724}],"type":"objectgroup"}],"nextlayerid":9,"nextobjectid":6,"orientation":"orthogonal","renderorder":"right-down","tiledversion":"1.11.2","tileheight":64,"tilesets":[],"tilewidth":64,"type":"map","version":"1.10","width":34}
