{
  "compressionlevel": -1,
  "height": 12,
  "infinite": false,
  "layers": [
    {"id":1,"image":"../environments/punggol-interchange-concourse.png","name":"BackgroundArt","type":"imagelayer","visible":true,"x":0,"y":0},
    {"id":2,"name":"Environment","objects":[{"height":464,"id":1,"name":"NE17 Punggol paid-entry concourse","type":"concourse","width":2176,"x":0,"y":260}],"type":"objectgroup"},
    {"id":3,"name":"Interactions","objects":[
      {"height":314,"id":2,"name":"Fare gate","properties":[{"name":"action","type":"string","value":"tap_in_nel"},{"name":"readerX","type":"int","value":1010},{"name":"readerY","type":"int","value":445}],"type":"fare-gate","width":960,"x":560,"y":410},
      {"height":304,"id":3,"name":"Next area","properties":[{"name":"target","type":"string","value":"punggol-nel-escalator"}],"type":"portal","width":336,"x":1840,"y":420}
    ],"type":"objectgroup"},
    {"id":4,"name":"Spawns","objects":[
      {"id":4,"name":"player-start","type":"spawn","x":160,"y":660},
      {"id":5,"name":"from-bus","type":"spawn","x":160,"y":660},
      {"id":6,"name":"from-lrt","type":"spawn","x":1580,"y":660}
    ],"type":"objectgroup"},
    {"id":5,"name":"Paths","objects":[{"height":130,"id":7,"name":"Paid-entry route through gates","type":"path","width":2050,"x":80,"y":560}],"type":"objectgroup"},
    {"id":6,"name":"Camera","objects":[{"height":724,"id":8,"name":"Station framing","type":"camera","width":2176,"x":0,"y":0}],"type":"objectgroup"}
  ],
  "nextlayerid":7,
  "nextobjectid":9,
  "orientation":"orthogonal",
  "properties":[{"name":"displayName","type":"string","value":"NE17 / PTC Punggol — Paid Concourse"}],
  "renderorder":"right-down",
  "tiledversion":"1.12.2",
  "tileheight":64,
  "tilesets":[],
  "tilewidth":64,
  "type":"map",
  "version":"1.10",
  "width":34
}
